; generated by Slic3r 1.0.1 on 2014-08-05 at 14:38:23

; layer_height = 5
; perimeters = 3
; top_solid_layers = 3
; bottom_solid_layers = 3
; fill_density = 0.4
; perimeter_speed = 30
; infill_speed = 60
; travel_speed = 130
; nozzle_diameter = 5
; filament_diameter = 3
; extrusion_multiplier = 1
; perimeters extrusion width = 5.00mm
; infill extrusion width = 5.00mm
; solid infill extrusion width = 5.00mm
; top infill extrusion width = 5.00mm
; first layer extrusion width = 5.00mm

G21 ; set units to millimeters
M107
M104 S200 ; set temperature
G28 ; home all axes
G1 Z5 F5000 ; lift nozzle

M109 S200 ; wait for temperature to be reached
G90 ; use absolute coordinates
G92 E0
M82 ; use absolute distances for extrusion
G1 F1800.000 E-1.00000
G92 E0
G1 Z5.000 F7800.000
G1 X61.277 Y62.899 F7800.000
G1 E1.00000 F1800.000
G1 X62.097 Y62.139 E4.95424 F540.000
G1 X63.087 Y61.329 E9.47827
G1 X63.587 Y60.969 E11.65734
G1 X64.567 Y60.329 E15.79703
G1 X65.847 Y59.629 E20.95684
G1 X66.427 Y59.359 E23.21955
G1 X67.107 Y59.069 E25.83414
G1 X85.527 Y51.969 E95.65358
G1 X86.657 Y51.599 E99.85893
G1 X87.707 Y51.319 E103.70231
G1 X88.697 Y51.109 E107.28163
G1 X89.697 Y50.979 E110.84817
G1 X90.747 Y50.899 E114.57254
G1 X92.577 Y50.909 E121.04494
G1 X94.677 Y51.099 E128.50251
G1 X118.067 Y53.739 E211.75298
G1 X119.317 Y53.949 E216.23590
G1 X120.527 Y54.309 E220.70080
G1 X137.367 Y60.299 E283.91574
G1 X138.237 Y60.649 E287.23240
G1 X142.447 Y62.569 E303.59758
G1 X143.397 Y63.059 E307.37813
G1 X144.287 Y63.629 E311.11609
G1 X147.517 Y65.939 E325.16070
G1 X148.687 Y66.909 E330.53590
G1 X149.667 Y67.839 E335.31422
G1 X150.777 Y69.069 E341.17396
G1 X151.277 Y69.739 E344.13071
G1 X153.437 Y72.929 E357.75612
G1 X154.397 Y74.679 E364.81560
G1 X155.037 Y76.579 E371.90646
G1 X156.027 Y80.779 E387.16801
G1 X156.307 Y82.919 E394.80122
G1 X156.177 Y85.079 E402.45449
G1 X155.487 Y89.289 E417.54297
G1 X154.977 Y91.249 E424.70588
G1 X154.117 Y93.079 E431.85726
G1 X151.647 Y97.289 E449.12057
G1 X150.907 Y98.379 E453.78013
G1 X150.047 Y99.379 E458.44492
G1 X132.687 Y117.269 E546.61086
G1 X132.217 Y117.729 E548.93681
G1 X130.577 Y119.229 E556.79737
G1 X129.757 Y119.909 E560.56499
G1 X128.857 Y120.519 E564.41033
G1 X127.917 Y121.089 E568.29838
G1 X126.817 Y121.669 E572.69651
G1 X125.657 Y122.129 E577.10998
G1 X123.437 Y122.859 E585.37522
G1 X122.637 Y123.089 E588.31925
G1 X121.587 Y123.349 E592.14503
G1 X120.657 Y123.539 E595.50217
G1 X96.567 Y127.319 E681.74562
G1 X95.897 Y127.399 E684.13209
G1 X94.847 Y127.499 E687.86251
G1 X93.907 Y127.549 E691.19178
G1 X91.687 Y127.569 E699.04374
G1 X89.867 Y127.439 E705.49707
G1 X86.497 Y126.879 E717.57945
G1 X84.927 Y126.549 E723.25352
G1 X84.067 Y126.329 E726.39310
G1 X82.147 Y125.729 E733.50756
G1 X80.177 Y124.969 E740.97552
G1 X78.737 Y124.269 E746.63834
G1 X77.677 Y123.659 E750.96377
G1 X76.927 Y123.189 E754.09417
G1 X76.477 Y122.879 E756.02682
G1 X75.667 Y122.269 E759.61312
G1 X60.337 Y109.479 E830.22413
G1 X59.347 Y108.549 E835.02816
G1 X58.747 Y107.919 E838.10516
G1 X56.857 Y105.739 E848.30954
G1 X56.307 Y105.029 E851.48595
G1 X55.867 Y104.409 E854.17483
G1 X55.317 Y103.549 E857.78529
G1 X54.857 Y102.659 E861.32860
G1 X54.367 Y101.599 E865.45876
G1 X53.847 Y100.269 E870.50942
G1 X53.517 Y98.889 E875.52779
G1 X53.427 Y98.379 E877.35941
G1 X53.267 Y96.879 E882.69467
G1 X53.247 Y96.339 E884.60584
G1 X53.267 Y95.109 E888.95665
G1 X54.837 Y74.069 E963.57731
G1 X55.017 Y72.739 E968.32411
G1 X55.357 Y71.439 E973.07657
G1 X55.717 Y70.349 E977.13647
G1 X56.187 Y69.169 E981.62874
G1 X56.787 Y68.059 E986.09139
G1 X57.087 Y67.569 E988.12342
G1 X57.667 Y66.709 E991.79213
G1 X58.317 Y65.919 E995.41038
G1 X59.077 Y65.099 E999.36461
G1 X60.746 Y63.429 E1007.71589
G1 F1800.000 E1006.71589
G92 E0
G1 X86.756 Y81.740 F7800.000
G1 E1.00000 F1800.000
G1 X89.738 Y80.169 E12.92017 F540.000
G1 X90.944 Y79.559 E17.70413
G1 X92.431 Y78.404 E24.36198
G1 X93.406 Y77.596 E28.83939
G1 X93.888 Y77.054 E31.40429
G1 X95.469 Y75.420 E39.44508
G1 X96.936 Y75.787 E44.79580
G1 X97.627 Y75.979 E47.33002
G1 X98.805 Y76.344 E51.69149
G1 X99.968 Y76.625 E55.92375
G1 X100.487 Y76.771 E57.83066
G1 X101.916 Y77.024 E62.96250
G1 X103.179 Y77.193 E67.47007
G1 X104.454 Y77.311 E71.99743
G1 X105.862 Y77.510 E77.02825
G1 X107.036 Y77.648 E81.20854
G1 X108.802 Y77.784 E87.47482
G1 X110.435 Y77.800 E93.25003
G1 X112.097 Y77.778 E99.12856
G1 X113.935 Y77.336 E105.81362
G1 X115.698 Y78.718 E113.73692
G1 X116.701 Y79.424 E118.07634
G1 X117.399 Y79.944 E121.15342
G1 X118.796 Y80.726 E126.81494
G1 X120.314 Y81.414 E132.71219
G1 X127.809 Y84.480 E161.35071
G1 X121.547 Y86.641 E184.77872
G1 X118.535 Y88.421 E197.15304
G1 X114.580 Y92.451 E217.12547
G1 X112.955 Y97.580 E236.15338
G1 X112.673 Y100.403 E246.18849
G1 X110.663 Y100.707 E253.37904
G1 X109.806 Y100.859 E256.45823
G1 X109.381 Y100.962 E258.00401
G1 X106.839 Y101.315 E267.08090
G1 X106.056 Y101.369 E269.85654
G1 X105.090 Y101.356 E273.27408
G1 X103.062 Y101.487 E280.46208
G1 X101.480 Y101.704 E286.10713
G1 X100.562 Y101.992 E289.51302
G1 X99.486 Y102.300 E293.47088
G1 X98.467 Y102.646 E297.27586
G1 X97.553 Y102.787 E300.54731
G1 X95.960 Y103.328 E306.49661
G1 X93.075 Y104.388 E317.36804
G1 X92.146 Y101.074 E329.54147
G1 X90.837 Y99.179 E337.68688
G1 X88.455 Y95.812 E352.27687
G1 X85.313 Y93.180 E366.77146
G1 X90.882 Y89.367 E390.64083
G1 X87.113 Y82.400 E418.65823
G1 X81.316 Y82.193 F7800.000
G1 X80.018 Y77.846 E434.70354 F540.000
G1 X83.886 Y77.141 E448.60804
G1 X85.161 Y76.765 E453.31180
G1 X86.255 Y76.352 E457.44641
G1 X88.257 Y75.315 E465.42041
G1 X89.301 Y74.504 E470.09671
G1 X89.923 Y73.988 E472.95381
G1 X90.222 Y73.652 E474.54533
G1 X91.269 Y72.571 E479.86744
G1 X91.710 Y71.833 E482.90654
G1 X93.176 Y69.501 E492.64876
G1 X95.127 Y70.070 E499.83781
G1 X95.922 Y70.241 E502.71298
G1 X96.870 Y70.565 E506.25569
G1 X97.947 Y70.886 E510.22999
G1 X99.036 Y71.181 E514.22153
G1 X100.129 Y71.520 E518.26751
G1 X101.606 Y71.892 E523.65534
G1 X102.674 Y72.081 E527.49036
G1 X103.595 Y72.204 E530.77800
G1 X105.173 Y72.361 E536.38778
G1 X106.468 Y72.546 E541.01174
G1 X107.593 Y72.675 E545.01738
G1 X109.074 Y72.786 E550.26963
G1 X110.427 Y72.800 E555.05715
G1 X111.471 Y72.786 E558.75064
G1 X112.118 Y72.630 E561.10084
G1 X113.878 Y72.340 E567.41331
G1 X115.279 Y72.046 E572.47637
G1 X116.689 Y73.157 E578.82586
G1 X117.353 Y73.649 E581.74880
G1 X118.683 Y74.704 E587.75228
G1 X120.124 Y75.739 E594.02861
G1 X121.078 Y76.273 E597.89252
G1 X122.278 Y76.815 E602.55002
G1 X123.053 Y77.132 E605.51266
G1 X125.429 Y77.676 E614.13407
G1 X126.358 Y77.922 E617.53219
G1 X129.435 Y77.983 E628.41785
G1 X131.881 Y78.088 E637.07587
G1 X134.175 Y79.139 E646.00052
G1 X136.363 Y80.708 E655.52382
G1 X137.361 Y82.186 E661.83187
G1 X137.680 Y83.558 E666.81139
G1 X137.452 Y84.943 E671.77598
G1 X136.288 Y86.930 E679.92309
G1 X133.451 Y89.497 E693.45098
G1 X131.852 Y90.175 E699.59609
G1 X130.081 Y90.118 E705.86318
G1 X129.470 Y90.075 E708.02739
G1 X128.616 Y90.136 E711.05563
G1 X126.750 Y90.362 E717.70356
G1 X125.792 Y90.441 E721.10625
G1 X123.662 Y91.201 E729.10420
G1 X121.648 Y92.390 E737.37586
G1 X118.983 Y95.108 E750.83835
G1 X117.879 Y98.591 E763.76279
G1 X117.754 Y99.839 E768.19562
G1 X117.769 Y100.643 E771.03999
G1 X117.867 Y102.072 E776.10681
G1 X118.462 Y105.291 E787.68551
G1 X114.779 Y105.361 E800.71389
G1 X112.845 Y105.434 E807.55992
G1 X111.472 Y105.642 E812.46934
G1 X110.197 Y105.897 E817.07067
G1 X107.411 Y106.283 E827.01611
G1 X106.476 Y106.363 E830.33599
G1 X105.210 Y106.358 E834.81447
G1 X104.730 Y106.387 E836.51524
G1 X103.564 Y106.465 E840.64703
G1 X102.576 Y106.601 E844.17398
G1 X100.958 Y107.079 E850.14030
G1 X99.950 Y107.425 E853.91148
G1 X99.429 Y107.557 E855.81056
G1 X98.746 Y107.662 E858.25470
G1 X97.196 Y108.201 E864.05913
G1 X96.692 Y108.424 E866.00872
G1 X96.417 Y108.569 E867.10831
G1 X93.782 Y109.022 E876.56435
G1 X93.371 Y109.062 E878.02473
G1 X92.086 Y109.070 E882.56940
G1 X90.754 Y108.820 E887.36383
G1 X88.837 Y108.564 E894.20492
G1 X88.438 Y106.450 E901.81189
G1 X88.338 Y106.015 E903.38925
G1 X87.557 Y103.228 E913.62741
G1 X84.747 Y99.229 E930.91418
G1 X83.620 Y98.280 E936.12669
G1 X82.275 Y97.245 E942.12749
G1 X81.531 Y96.761 E945.26857
G1 X80.442 Y96.232 E949.54917
G1 X75.678 Y93.717 E968.60079
G1 X84.341 Y87.786 E1005.73283
G1 X81.673 Y82.853 E1025.56934
G1 F1800.000 E1024.56934
G92 E0
G1 X77.801 Y86.204 F7800.000
G1 E1.00000 F1800.000
G1 X76.672 Y84.118 E9.38843 F378.000
G1 X76.401 Y83.207 E12.75058
G1 X75.876 Y82.520 E15.80872
G1 X75.470 Y82.160 E17.72703
G1 X74.659 Y81.265 E21.99854
G1 X74.384 Y81.039 E23.25778
G1 X73.999 Y80.611 E25.29274
G1 X73.576 Y80.127 E27.56613
G1 X72.449 Y78.592 E34.30048
G1 X71.518 Y77.499 E39.38021
G1 X70.876 Y76.657 E43.12322
G1 X70.618 Y76.359 E44.51895
G1 X68.979 Y74.660 E52.86692
G1 X70.882 Y72.410 E63.29039
G1 X71.189 Y72.137 E64.74473
G1 X71.845 Y71.672 E67.58992
G1 X72.791 Y71.550 E70.96231
G1 X73.537 Y71.564 E73.60158
G1 X74.479 Y71.664 E76.95001
G1 X75.799 Y71.932 E81.71396
G1 X77.501 Y72.325 E87.89114
G1 X78.687 Y72.517 E92.14323
G1 X79.930 Y72.581 E96.54507
G1 X80.215 Y72.581 E97.55286
G1 X81.531 Y72.488 E102.21890
G1 X82.710 Y72.273 E106.45446
G1 X83.606 Y72.007 E109.76168
G1 X84.201 Y71.783 E112.00962
G1 X85.570 Y71.071 E117.46685
G1 X86.441 Y70.380 E121.39796
G1 X87.275 Y69.508 E125.66902
G1 X88.431 Y67.630 E133.46514
G1 X89.401 Y65.606 E141.40496
G1 X90.905 Y64.294 E148.46345
G1 X92.390 Y64.476 E153.75400
G1 X93.475 Y64.559 E157.60276
G1 X94.299 Y64.646 E160.53271
G1 X95.282 Y64.944 E164.16555
G1 X96.356 Y65.220 E168.08860
G1 X97.248 Y65.413 E171.31664
G1 X98.139 Y65.721 E174.65066
G1 X99.322 Y66.076 E179.01939
G1 X100.466 Y66.390 E183.21516
G1 X101.453 Y66.696 E186.86709
G1 X102.725 Y67.013 E191.50455
G1 X103.432 Y67.138 E194.04274
G1 X104.011 Y67.215 E196.11047
G1 X105.909 Y67.412 E202.85783
G1 X107.073 Y67.582 E207.01994
G1 X108.150 Y67.701 E210.85098
G1 X109.345 Y67.789 E215.08924
G1 X110.846 Y67.794 E220.39721
G1 X111.124 Y67.727 E221.40874
G1 X112.957 Y67.424 E227.98027
G1 X114.891 Y67.012 E234.97193
G1 X116.207 Y67.130 E239.64680
G1 X117.800 Y67.846 E245.82565
G1 X118.650 Y68.361 E249.33867
G1 X118.887 Y68.523 E250.35524
G1 X120.523 Y69.777 E257.64479
G1 X121.668 Y70.691 E262.82497
G1 X122.850 Y71.535 E267.96176
G1 X123.360 Y71.820 E270.02805
G1 X124.527 Y72.333 E274.54016
G1 X127.032 Y72.928 E283.64521
G1 X129.539 Y72.983 E292.51397
G1 X133.073 Y73.135 E305.02473
G1 X136.697 Y74.794 E319.12027
G1 X139.520 Y76.819 E331.40851
G1 X140.226 Y77.494 E334.86135
G1 X142.022 Y80.154 E346.21516
G1 X142.775 Y83.392 E357.97042
G1 X142.235 Y86.670 E369.72094
G1 X140.213 Y90.122 E383.86967
G1 X136.181 Y93.770 E403.10072
G1 X133.135 Y95.062 E414.80336
G1 X131.536 Y95.168 E420.46984
G1 X129.473 Y95.088 E427.77369
G1 X129.094 Y95.115 E429.11550
G1 X127.257 Y95.337 E435.66187
G1 X126.843 Y95.371 E437.12879
G1 X125.776 Y95.761 E441.14824
G1 X124.761 Y96.360 E445.31725
G1 X123.385 Y97.764 E452.26978
G1 X122.803 Y99.603 E459.09076
G1 X122.759 Y100.043 E460.65446
G1 X122.766 Y100.446 E462.08120
G1 X122.844 Y101.489 E465.77904
G1 X123.284 Y103.849 E474.26953
G1 X123.557 Y104.931 E478.21658
G1 X123.702 Y105.732 E481.09608
G1 X123.730 Y106.589 E484.13001
G1 X123.331 Y107.487 E487.60227
G1 X122.986 Y107.894 E489.48989
G1 X121.656 Y109.100 E495.84087
G1 X121.206 Y109.373 E497.70254
G1 X119.280 Y110.023 E504.89030
G1 X118.508 Y110.208 E507.70089
G1 X117.772 Y110.287 E510.31620
G1 X113.362 Y110.413 E525.92163
G1 X112.071 Y110.613 E530.54166
G1 X111.012 Y110.832 E534.36683
G1 X107.983 Y111.251 E545.18083
G1 X106.854 Y111.352 E549.19180
G1 X106.294 Y111.373 E551.17245
G1 X105.329 Y111.360 E554.58484
G1 X104.066 Y111.443 E559.06190
G1 X103.671 Y111.497 E560.47075
G1 X102.431 Y111.858 E565.04032
G1 X101.384 Y112.221 E568.96014
G1 X100.518 Y112.440 E572.11854
G1 X99.940 Y112.537 E574.19313
G1 X99.072 Y112.838 E577.44063
G1 X98.500 Y113.124 E579.70336
G1 X98.222 Y113.237 E580.76283
G1 X97.352 Y113.481 E583.96096
G1 X96.440 Y113.649 E587.23977
G1 X95.359 Y113.812 E591.10661
G1 X94.495 Y113.976 E594.21727
G1 X93.644 Y114.060 E597.24144
G1 X91.746 Y114.067 E603.95372
G1 X91.055 Y113.962 E606.42558
G1 X89.972 Y113.760 E610.32116
G1 X88.874 Y113.595 E614.25010
G1 X87.846 Y113.371 E617.96933
G1 X86.604 Y112.989 E622.56479
G1 X85.408 Y112.522 E627.10534
G1 X83.710 Y111.570 E633.98941
G1 X83.705 Y108.330 E645.45055
G1 X83.492 Y107.251 E649.33772
G1 X82.968 Y105.382 E656.20508
G1 X81.040 Y102.646 E668.04359
G1 X80.516 Y102.204 E670.46637
G1 X79.366 Y101.318 E675.60057
G1 X79.064 Y101.121 E676.87498
G1 X77.728 Y100.453 E682.15940
G1 X76.431 Y100.136 E686.88306
G1 X76.132 Y100.083 E687.95453
G1 X75.531 Y100.032 E690.08789
G1 X74.232 Y100.022 E694.68182
G1 X73.784 Y99.973 E696.27637
G1 X72.976 Y100.004 E699.13579
G1 X72.658 Y100.047 E700.27263
G1 X71.737 Y100.058 E703.52868
G1 X70.580 Y99.847 E707.68867
G1 X70.065 Y99.615 E709.68630
G1 X69.032 Y99.191 E713.63728
G1 X68.521 Y98.570 E716.47989
G1 X67.769 Y97.733 E720.46184
G1 X66.688 Y96.477 E726.32357
G1 X67.645 Y94.054 E735.53534
G1 X67.730 Y93.747 E736.66310
G1 X67.906 Y92.883 E739.78003
G1 X68.016 Y92.462 E741.31839
G1 X68.370 Y91.845 E743.83642
G1 X68.635 Y91.308 E745.95304
G1 X69.239 Y90.633 E749.15756
G1 X69.784 Y90.220 E751.57549
G1 X70.389 Y89.871 E754.04473
G1 X71.097 Y89.610 E756.71671
G1 X71.298 Y89.589 E757.43009
G1 X73.148 Y89.017 E764.27751
G1 X73.730 Y88.960 E766.34578
G1 X77.182 Y86.628 E781.08141
G1 F1800.000 E780.08141
G92 E0
G1 X79.849 Y85.007 F7800.000
G1 X95.566 Y99.644 F7800.000
G1 E1.00000 F1800.000
G1 X95.519 Y99.597 E1.24998 F1080.000
G1 X101.472 Y98.056 E24.29250
G1 X94.611 Y91.195 E60.65565
G1 X93.252 Y82.344 E94.21731
G1 X108.362 Y97.454 E174.30172
G1 X110.803 Y92.403 E195.32774
G1 X98.355 Y79.954 E261.30292
G1 X107.178 Y81.285 E294.74255
G1 X113.888 Y87.995 E330.30633
G1 X117.599 Y84.213 E350.16287
G1 X117.566 Y84.180 E350.33840
M106 S255
G1 F1800.000 E349.33840
G92 E0
G1 Z10.000 F7800.000
G1 X119.730 Y80.193 F7800.000
G1 E1.00000 F1800.000
G1 X121.240 Y80.755 E6.69802 F1193.031
G1 X122.272 Y81.259 E10.76255
G1 X124.392 Y81.687 E18.40918
G1 X126.980 Y82.021 E27.63964
G1 X128.900 Y81.893 E34.44627
G1 X129.574 Y81.978 E36.84851
G1 X129.986 Y81.980 E38.30609
G1 X135.066 Y84.058 E57.71640
G1 X130.924 Y87.322 E76.36635
G1 X130.256 Y87.881 E79.44800
G1 X129.531 Y88.361 E82.52338
G1 X128.769 Y88.996 E86.03125
G1 X127.247 Y89.798 E92.11392
G1 X126.969 Y90.046 E93.43050
G1 X125.015 Y90.910 E100.98888
G1 X122.681 Y92.046 E110.17057
G1 X121.450 Y93.133 E115.97711
G1 X118.995 Y94.972 E126.82503
G1 X117.958 Y97.229 E135.61138
G1 X116.591 Y99.312 E144.42157
G1 X113.733 Y100.015 E154.83126
G1 X112.807 Y100.293 E158.25027
G1 X110.861 Y100.632 E165.23892
G1 X107.990 Y101.633 E175.99017
G1 X106.566 Y101.649 E181.02803
G1 X106.508 Y101.666 E181.24190
G1 X105.771 Y101.659 E183.84946
G1 X105.171 Y101.718 E185.98198
G1 X102.869 Y101.866 E194.14031
G1 X101.723 Y102.245 E198.40780
G1 X100.682 Y102.475 E202.18033
G1 X100.425 Y102.463 E203.08791
G1 X99.124 Y102.575 E207.70645
G1 X97.832 Y102.768 E212.32702
G1 X97.039 Y102.822 E215.13967
G1 X96.639 Y102.890 E216.57296
G1 X93.602 Y102.810 E227.31817
G1 X92.783 Y100.242 E236.85025
G1 X91.654 Y98.927 E242.97766
G1 X91.297 Y98.273 E245.61349
G1 X89.529 Y96.362 E254.82439
G1 X91.098 Y94.621 E263.11354
G1 X91.895 Y92.137 E272.33846
G1 X92.782 Y90.226 E279.79020
G1 X92.750 Y86.401 E293.31785
G1 X92.315 Y83.460 E303.83401
G1 X92.016 Y82.605 E307.03686
G1 X91.569 Y80.739 E313.82360
G1 X94.247 Y78.742 E325.64151
G1 X95.527 Y76.999 E333.28709
G1 X96.651 Y75.603 E339.62734
G1 X99.633 Y76.010 E350.27011
G1 X100.634 Y76.115 E353.83254
G1 X102.285 Y76.251 E359.69113
G1 X104.324 Y76.716 E367.08737
G1 X106.749 Y76.917 E375.69453
G1 X107.829 Y77.050 E379.54184
G1 X109.553 Y77.005 E385.64068
G1 X111.386 Y76.852 E392.14605
G1 X113.404 Y76.729 E399.29850
G1 X114.929 Y77.587 E405.48464
G1 X115.909 Y78.021 E409.27816
G1 X116.632 Y78.301 E412.01803
G1 X117.675 Y79.031 E416.52271
